X:5023
T:Thirty Bottle Hughie
M:4/4
R:Reel
L:1/8
C:Aidan Crossey
K:G
GA|BGEG DGEG|cAAA/B/ cAA2|BGEG DGEG|cBAB G2GA
BGEG DGEG|cAAA/B/ cAA2|BGEG DGEG|cBAB G2||
GA|BGdG BGdG|cAFA cAFA|BGdG BGdG|cAFA G2GA|
BGdG BGdG|cAFA EADA|BGdG BGdG|cAFA G2||
GA|BGdG eGdG|cAAA/B/ cAFA|BGdG eGdG|cAFA G2GA|
BGdG eGdG|cAAA/B/ cAFA|BGdG eGdG|cAFA G2||
